X: 262
P: Longways for as many as will
M: 6/8
L: 1/8
K: C
V: 1
cde ede | cAA A2G | cde cde | fdd d2G |\
cde ede | cAA A2c | GAG AcA | cde d2 :|
|: e |\
gag ede | cAA A2a | gag ede | fed d2g |\
agf edc | AAA A2c | GAG AcA | cde d2 :|
V: 2 clef=bass middle=d
z |\
e3 c3 | f3- f2z | e3 c3 | g3- g2f |\
e3 c3 | f3 F3 | e3 f3 | e2c g2 :|
|: z |\
e3 c3 | f3 F3 | e3 d3 | g3- g2e |\
f3 c2z | f3 F3 | e3 f3 | e2c g2 |]

